Adwaita++/actions/22/object-group.svg

<svg height="22" viewBox="0 0 22 22" width="22" xmlns="http://www.w3.org/2000/svg">
  <path d="m3 1c-1.108 0-2 .892-2 2v10c0 1.108.892 2 2 2h10c1.108 0 2-.892 2-2v-10c0-1.108-.892-2-2-2zm3 3c1.1046 0 2 .8954 2 2s-.8954 2-2 2-2-.8954-2-2 .8954-2 2-2zm3 0h3v4h-3zm-4 5h2v3h-2zm5.5 0 1.5 3h-3z" fill="#444" transform="translate(3 3)"/>
</svg>

<svg xmlns="http://www.w3.org/2000/svg" width="22" height="22" viewBox="0 0 22 22">
 <defs>
  <style id="current-color-scheme" type="text/css">
   .ColorScheme-Text { color:#444444; } .ColorScheme-Highlight { color:#4285f4; }
  </style>
 </defs>
 <path style="fill:currentColor" class="ColorScheme-Text" d="M 3 1 C 1.892 1 1 1.892 1 3 L 1 13 C 1 14.108 1.892 15 3 15 L 13 15 C 14.108 15 15 14.108 15 13 L 15 3 C 15 1.892 14.108 1 13 1 L 3 1 z M 6 4 C 7.1046 4 8 4.8954 8 6 C 8 7.1046 7.1046 8 6 8 C 4.8954 8 4 7.1046 4 6 C 4 4.8954 4.8954 4 6 4 z M 9 4 L 12 4 L 12 8 L 9 8 L 9 4 z M 5 9 L 7 9 L 7 12 L 5 12 L 5 9 z M 10.5 9 L 12 12 L 9 12 L 10.5 9 z" transform="translate(3 3)"/>
</svg>
